outputs/icons/action/trending_up_round.svg

<svg width="1200" height="1200" viewBox="0 0 1200 1200" fill="none" xmlns="http://www.w3.org/2000/svg"><g clip-path="url(#clip0_223_1888)"><path d="M842.5 342.5L914.5 414.5L670.5 658.5L506 494C486.499 474.5 454.999 474.5 435.499 494L135.499 794.5C115.999 814 115.999 845.5 135.499 865C154.999 884.5 186.499 884.5 205.999 865L470.499 600L635 764.5C654.5 784 686 784 705.5 764.5L985 485.5L1057 557.5C1072.5 573 1099.5 562 1099.5 540V325C1100 311 1089 300 1075 300H860.5C838 300 827 327 842.5 342.5Z" fill="#1D1E23"/></g><defs><clipPath id="clip0_223_1888"><path width="24" fill="white" d="M0 0H1200V1200H0V0z"/></clipPath></defs></svg>

<svg xmlns="http://www.w3.org/2000/svg" width="1200" height="1200" fill="none"><g clip-path="url(#a)"><path fill="#000" d="m842.5 342.5 72 72-244 244L506 494c-19.501-19.5-51.001-19.5-70.501 0l-300 300.5c-19.5 19.5-19.5 51 0 70.5s51 19.5 70.5 0l264.5-265L635 764.5c19.5 19.5 51 19.5 70.5 0l279.5-279 72 72c15.5 15.5 42.5 4.5 42.5-17.5V325c.5-14-10.5-25-24.5-25H860.5c-22.5 0-33.5 27-18 42.5"/></g><defs><clipPath id="a"><path fill="#fff" d="M0 0h1200v1200H0z"/></clipPath></defs></svg>
